X:1
T:The Lord Jesus of My Soul
T:The Lord Jesus of My Soul
T:Florence Heagle
T:Florence Heagle, 1905
T:Public Domain Courtesy of the Cyber Hymnal™
T:Public Domain Courtesy of the Cyber Hymnal™
C:Florence Heagle
Z:Public Domain
Z:Courtesy of the Cyber Hymnal™
%%score ( 1 2 ) 3
L:1/8
Q:1/4=100
M:6/8
K:Eb
V:1 treble 
V:2 treble 
V:3 bass 
V:1
 ([EG]2 [EG]) [EG]2 [DF] | [B,F] [B,E]2 z2 B, | ([DA][DA])[DA] [DA]2 [D^F] | %3
w: 1.~Life * lies be-|fore me, Naught|in~it * can I con-|
w: 2.~Sorrow * lies be-|fore me; Friends|are~pre- * cious to con-|
w: 3.~Darkness * lies be-|fore me; I|can- * not see the|
w: 4.~Victory * lies be-|fore me! Sa-|tan~shall * not have con-|
w: 5.~Joy * lies be-|fore me! For|His~grace * doth keep me|
 [EG]3- [EG]2 [EG]/[FA]/ | [GB]2 [GB] [GB]2 [Ac] | [Ac] [GB]2 E2 [EG] | [EG]2 [EF] [EF]2 [EG] | %7
w: trol, * So I|give it in His|keep- ing, The Lord|Je- sus of my|
w: sole, * But He|sur- passes all in|com- fort, The Lord|Je- sus of my|
w: goal, * I can|on- ly hold fast|trust- ing— The Lord|Je- sus of my|
w: trol, * For He’s|strong- er than the|tempt- er, The Lord|Je- sus of my|
w: whole; * And my|heart shall e’er keep|prais- ing, The Lord|Je- sus of my|
 [DF]3- [DF]2 [D^F]/[DF]/ | [EG]2 [EB] [Ec] [Ae]2 | [GB] [EG]2 E2 [EA] | [EG] [B,E]2 [DF]2 E | %11
w: soul; * So I|give it in His|keep- ing, The Lord|Je- sus of my|
w: soul; * But He|sur- passes all in|com- fort, The Lord|Je- sus of my|
w: soul; * I can|on- ly hold fast|trust- ing— The Lord|Je- sus of my|
w: soul; * For He’s|strong- er than the|tempt- er, The Lord|Je- sus of my|
w: soul; * And my|heart shall e’er keep|prais- ing, The Lord|Je- sus of my|
 E3- E2 ||"^Refrain" [EB] | [DB]2 [DF] [DF]2 [DB] | [EB]3- [EB]2 [EG] | [EG]2 [B,E] [DF]2 E | %16
w: soul. *|||||
w: soul. *|I’ll|trust what- e’er be-|fall, * I’ll|trust Him thro’ it|
w: soul. *|||||
w: soul. *|Last|verse: * * *|||
w: soul. *|I’ll|trust what- e’er be-|fall, * I’ll|praise Him thro’ it|
 E3- E2 z |] %17
w: |
w: all. *|
w: |
w: |
w: all. *|
V:2
 x6 | x5 B, | x6 | x6 | x6 | x3 E2 x | x6 | x6 | x6 | x3 E2 x | x5 E | E3- E2 || x | x6 | x6 | %15
 x5 E | E3- E2 x |] %17
V:3
 ([E,B,]2 [E,B,]) [E,B,]2 [B,,A,] | [E,A,] [E,G,]2 z2 [E,G,] | %2
 ([B,,F,][B,,F,])[B,,F,] [B,,F,]2 [B,,B,] | [E,B,]3- [E,B,]2 [E,B,]/[E,B,]/ | %4
 [E,E]2 [E,E] [E,E]2 [E,E] | [E,E] [E,E]2 [E,G,]2 [E,B,] | [C,=A,]2 [C,A,] [F,A,]2 [F,A,] | %7
 [B,,B,]3- [B,,B,]2 [B,,B,]/[B,,B,]/ | [E,B,]2 [E,G,] [A,,A,] [A,,C]2 | %9
 [E,E] [E,B,]2 [C,C]2 [A,,C] | [B,,B,] [B,,G,]2 [B,,A,]2 [E,G,] | [E,G,]3- [E,G,]2 || [E,G,] | %13
 [B,,F,]2 [B,,B,] [B,,B,]2 [B,,A,] | [E,G,]3- [E,G,]2 [E,B,] | [E,B,]2 [E,G,] [B,,A,]2 [E,G,] | %16
 [E,G,]3- [E,G,]2 z |] %17

